x-pack/solutions/search/plugins/enterprise_search/public/assets/images/cut.svg

<svg width="56" height="56" viewBox="0 0 56 56" fill="none" xmlns="http://www.w3.org/2000/svg">
<rect width="56" height="56" rx="28" fill="#6DCCB1"/>
<g clip-path="url(#clip0_1564_106662)">
<path fill-rule="evenodd" clip-rule="evenodd" d="M20.8557 35.6855L16.0761 37.0561C12.7157 38.0196 9.21041 36.0766 8.24684 32.7162C7.28326 29.3558 9.22626 25.8506 12.5867 24.887L17.4543 23.4912C19.8262 22.8111 22.2704 23.5791 23.8419 25.2715L27.666 11.9351C28.0138 10.7221 29.1657 9.69248 30.5642 8.84101C31.2405 8.42924 31.8652 8.14614 32.5122 8.04084C34.5463 7.70982 36.2699 9.43566 35.6654 11.5949L31.9342 24.607L44.4051 21.0311C46.5643 20.4265 48.2902 22.1501 47.9592 24.1842C47.8539 24.8312 47.5708 25.4559 47.159 26.1322C46.3075 27.5307 45.2779 28.6826 44.0649 29.0304L31.8073 32.5452C33.2293 34.1142 33.8318 36.3606 33.2052 38.5457L31.8094 43.4133C30.8459 46.7737 27.3406 48.7167 23.9802 47.7532C20.6198 46.7896 18.6768 43.2843 19.6404 39.9239L20.8557 35.6855ZM21.6786 32.8156L22.878 28.633C22.8691 28.5983 22.8597 28.5636 22.8497 28.5289C22.2716 26.5127 20.1684 25.3469 18.1522 25.925L13.2845 27.3208C11.2683 27.899 10.1025 30.0021 10.6806 32.0184C11.2588 34.0346 13.362 35.2004 15.3782 34.6223L21.6786 32.8156ZM31.1113 27.4769L30.2883 30.3468L43.3671 26.5966C44.1783 26.3639 46.3221 23.1236 45.103 23.4649L31.1113 27.4769ZM22.0742 40.6218C21.496 42.638 22.6618 44.7412 24.6781 45.3194C26.6943 45.8975 28.7975 44.7317 29.3756 42.7155L30.7714 37.8478C31.3495 35.8316 30.1837 33.7284 28.1675 33.1503C27.7408 33.0279 27.3102 32.9837 26.891 33.0091L33.2316 10.897C33.5728 9.67792 30.3325 11.8217 30.0999 12.6329L22.0742 40.6218ZM24.508 41.3197L25.9038 36.4521C26.0965 35.78 26.7975 35.3914 27.4696 35.5841C28.1417 35.7768 28.5303 36.4779 28.3376 37.1499L26.9418 42.0176C26.7491 42.6897 26.048 43.0783 25.376 42.8855C24.7039 42.6928 24.3153 41.9918 24.508 41.3197ZM14.6803 32.1884C14.0082 32.3812 13.3072 31.9926 13.1145 31.3205C12.9217 30.6484 13.3103 29.9473 13.9824 29.7546L18.8501 28.3589C19.5221 28.1661 20.2232 28.5547 20.4159 29.2268C20.6086 29.8989 20.22 30.6 19.5479 30.7927L14.6803 32.1884Z" fill="#007E77"/>
</g>
<defs>
<clipPath id="clip0_1564_106662">
<rect width="40" height="40" fill="white" transform="translate(8 8)"/>
</clipPath>
</defs>
</svg>

<svg xmlns="http://www.w3.org/2000/svg" width="56" height="56" fill="none"><rect width="56" height="56" fill="#6DCCB1" rx="28"/><g clip-path="url(#a)"><path fill="#007E77" fill-rule="evenodd" d="m20.856 35.686-4.78 1.37a6.33 6.33 0 0 1-3.49-12.169l4.868-1.396a6.33 6.33 0 0 1 6.388 1.78l3.824-13.336c.348-1.213 1.5-2.243 2.898-3.094.677-.412 1.301-.695 1.948-.8 2.034-.331 3.758 1.395 3.153 3.554l-3.73 13.012 12.47-3.576c2.16-.604 3.885 1.12 3.554 3.153-.105.647-.388 1.272-.8 1.948-.852 1.399-1.881 2.55-3.094 2.898l-12.258 3.515a6.33 6.33 0 0 1 1.398 6l-1.396 4.868a6.33 6.33 0 1 1-12.169-3.49zm.823-2.87 1.199-4.183-.028-.104a3.8 3.8 0 0 0-4.698-2.604l-4.868 1.396a3.798 3.798 0 0 0 2.094 7.301zm9.432-5.34-.823 2.87 13.08-3.75c.81-.232 2.954-3.472 1.735-3.131zm-9.037 13.146a3.798 3.798 0 1 0 7.302 2.093l1.395-4.867a3.798 3.798 0 0 0-3.88-4.839l6.34-22.112c.342-1.22-2.899.925-3.131 1.736zm2.434.698 1.396-4.868a1.266 1.266 0 1 1 2.434.698l-1.396 4.868a1.266 1.266 0 1 1-2.434-.698m-9.828-9.132a1.266 1.266 0 1 1-.698-2.433l4.868-1.396a1.266 1.266 0 1 1 .698 2.434z" clip-rule="evenodd"/></g><defs><clipPath id="a"><path fill="#fff" d="M8 8h40v40H8z"/></clipPath></defs></svg>
